X: 8399
T: Cow That Ate The Blanket, The
R: reel
M: 4/4
K: Dmajor
D2 F/E/D FAAB|d2 fd efd2|D2 F/E/D FAAd|BF F/F/F BFAF|
D2 F/E/D FAAB|d2 fd efdf|efdB BAFB|1 AFEG FDDE:|2 AFEG FDD2||
efdB BAFA|d2 fd efd2|efdB BAFB|AFEG FDD2|
efdB BAFA|d2 fd efd2|ef2d efdB|1 AFEG FDD2:|AFEG FDDE||

